X: 20168
T: Job Of Journeywork, The
R: hornpipe
M: 4/4
K: Gmajor
fe|dcAG FGAB|(3cBA (3BAG A2 (3gfe|(3dcB (3cBA (3BAG AF|GBAF DEFG|
A3F GFEF|D3E F2 G2|A2 dA (3Bcd e^c|d4 d z fe|
dcAG FGAB|(3cBA (3BAG A2 (3gfe|d2 cA BGAF|GBAF DEFG|
A3F GFEF|D3E F2 G2|A2 dA (3Bcd e^c|d4 d z de||
f2 ef gfe^c|d^cAG A2 de|f2 ge aged|d3^c A2 (3Bcd|
ea a2 ef (3gfe|d^cde (3fed e^c|d^cAG (3EFG AB|c3d c2 Bc|
(3dcB (3cBA (3BAG (3AGF|(3GAB AF DEFG|AGFA GEAF|D3E Fz G2||
A2 dA (3Bcd e^c|d4 d3e|f2 ef gfed|d^cAG A2 de|
f2 ge age^c|d3c dz ^cd|e.a.a.a ef (3gfe|d^cde (3fed e^c|
d^cAG (3EFG AB|c3d c2 Bc|(3dcB (3cBA (3BAG AF|GBAF DEFG|
A2 AF GFEF|D3E F2 G2|A2 dA (3Bcd e^c|d4 d2 (3gfe||

